src/maasserver/static/assets/images/icons/settings.svg

<?xml version="1.0" encoding="UTF-8" standalone="no"?>
<!-- Created with Inkscape (http://www.inkscape.org/) -->

<svg
   xmlns:dc="http://purl.org/dc/elements/1.1/"
   xmlns:cc="http://creativecommons.org/ns#"
   xmlns:rdf="http://www.w3.org/1999/02/22-rdf-syntax-ns#"
   xmlns:svg="http://www.w3.org/2000/svg"
   xmlns="http://www.w3.org/2000/svg"
   xmlns:sodipodi="http://sodipodi.sourceforge.net/DTD/sodipodi-0.dtd"
   xmlns:inkscape="http://www.inkscape.org/namespaces/inkscape"
   width="96"
   height="96"
   id="svg4874"
   version="1.1"
   inkscape:version="0.91+devel r"
   viewBox="0 0 96 96.000001"
   sodipodi:docname="settings.svg">
  <defs
     id="defs4876" />
  <sodipodi:namedview
     id="base"
     pagecolor="#ffffff"
     bordercolor="#666666"
     borderopacity="1.0"
     inkscape:pageopacity="0.0"
     inkscape:pageshadow="2"
     inkscape:zoom="4.4959995"
     inkscape:cx="-16.425718"
     inkscape:cy="47.675692"
     inkscape:document-units="px"
     inkscape:current-layer="g4780"
     showgrid="true"
     showborder="true"
     fit-margin-top="0"
     fit-margin-left="0"
     fit-margin-right="0"
     fit-margin-bottom="0"
     inkscape:snap-bbox="true"
     inkscape:bbox-paths="true"
     inkscape:bbox-nodes="true"
     inkscape:snap-bbox-edge-midpoints="true"
     inkscape:snap-bbox-midpoints="true"
     inkscape:object-paths="true"
     inkscape:snap-intersection-paths="true"
     inkscape:object-nodes="true"
     inkscape:snap-smooth-nodes="true"
     inkscape:snap-midpoints="true"
     inkscape:snap-object-midpoints="true"
     inkscape:snap-center="true"
     showguides="true"
     inkscape:guide-bbox="true"
     inkscape:snap-global="true">
    <inkscape:grid
       type="xygrid"
       id="grid5451"
       empspacing="8" />
    <sodipodi:guide
       orientation="1,0"
       position="8,-8.0000001"
       id="guide4063" />
    <sodipodi:guide
       orientation="1,0"
       position="4,-8.0000001"
       id="guide4065" />
    <sodipodi:guide
       orientation="0,1"
       position="-8,88.000001"
       id="guide4067" />
    <sodipodi:guide
       orientation="0,1"
       position="-8,92.000001"
       id="guide4069" />
    <sodipodi:guide
       orientation="0,1"
       position="104,4"
       id="guide4071" />
    <sodipodi:guide
       orientation="0,1"
       position="-5,8.0000001"
       id="guide4073" />
    <sodipodi:guide
       orientation="1,0"
       position="92,-8.0000001"
       id="guide4075" />
    <sodipodi:guide
       orientation="1,0"
       position="88,-8.0000001"
       id="guide4077" />
    <sodipodi:guide
       orientation="0,1"
       position="-8,84.000001"
       id="guide4074" />
    <sodipodi:guide
       orientation="1,0"
       position="12,-8.0000001"
       id="guide4076" />
    <sodipodi:guide
       orientation="0,1"
       position="-5,12"
       id="guide4078" />
    <sodipodi:guide
       orientation="1,0"
       position="84,-9.0000001"
       id="guide4080" />
    <sodipodi:guide
       position="48,-8.0000001"
       orientation="1,0"
       id="guide4170" />
    <sodipodi:guide
       position="-8,48"
       orientation="0,1"
       id="guide4172" />
  </sodipodi:namedview>
  <metadata
     id="metadata4879">
    <rdf:RDF>
      <cc:Work
         rdf:about="">
        <dc:format>image/svg+xml</dc:format>
        <dc:type
           rdf:resource="http://purl.org/dc/dcmitype/StillImage" />
        <dc:title></dc:title>
      </cc:Work>
    </rdf:RDF>
  </metadata>
  <g
     inkscape:label="Layer 1"
     inkscape:groupmode="layer"
     id="layer1"
     transform="translate(67.857146,-78.50504)">
    <g
       transform="matrix(0,-1,-1,0,373.50506,516.50504)"
       id="g4845"
       style="display:inline">
      <g
         inkscape:export-ydpi="90"
         inkscape:export-xdpi="90"
         inkscape:export-filename="next01.png"
         transform="matrix(-0.9996045,0,0,1,575.94296,-611.00001)"
         id="g4778"
         inkscape:label="Layer 1">
        <g
           transform="matrix(-1,0,0,1,575.99999,611)"
           id="g4780"
           style="display:inline">
          <rect
             style="color:#000000;display:inline;overflow:visible;visibility:visible;fill:none;stroke:none;stroke-width:4;marker:none;enable-background:accumulate"
             id="rect4782"
             width="96.037987"
             height="96"
             x="-438.00244"
             y="345.36221"
             transform="scale(-1,1)" />
          <path
             style="color:#000000;font-style:normal;font-variant:normal;font-weight:normal;font-stretch:normal;font-size:medium;line-height:normal;font-family:sans-serif;font-variant-ligatures:none;font-variant-position:normal;font-variant-caps:normal;font-variant-numeric:normal;font-variant-alternates:normal;font-feature-settings:normal;text-indent:0;text-align:start;text-decoration:none;text-decoration-line:none;text-decoration-style:solid;text-decoration-color:#000000;letter-spacing:normal;word-spacing:normal;text-transform:none;direction:ltr;block-progression:tb;writing-mode:lr-tb;baseline-shift:baseline;text-anchor:start;white-space:normal;shape-padding:0;clip-rule:nonzero;display:inline;overflow:visible;visibility:visible;opacity:1;isolation:auto;mix-blend-mode:normal;color-interpolation:sRGB;color-interpolation-filters:linearRGB;solid-color:#000000;solid-opacity:1;fill:#808080;fill-opacity:1;fill-rule:nonzero;stroke:none;stroke-width:4.0007925;stroke-linecap:butt;stroke-linejoin:miter;stroke-miterlimit:4;stroke-dasharray:none;stroke-dashoffset:0;stroke-opacity:1;marker:none;color-rendering:auto;image-rendering:auto;shape-rendering:auto;text-rendering:auto;enable-background:accumulate"
             d="m 371.94351,362.16529 c 17.19788,-9.91601 39.26149,-3.98444 49.20927,13.22273 9.94779,17.20716 4.05873,39.25353 -13.13915,49.16953 -17.19788,9.91601 -39.26053,3.98613 -49.20832,-13.22104 -9.94778,-17.20717 -4.05969,-39.25522 13.1382,-49.17122 z m 2.00297,3.46463 c -15.32206,8.83444 -20.54308,28.37061 -11.67591,43.70858 8.86716,15.33798 28.41901,20.59054 43.74106,11.7561 15.32205,-8.83443 20.54307,-28.37061 11.6759,-43.70858 -8.86716,-15.33797 -28.41901,-20.59053 -43.74105,-11.7561 z"
             id="path5417"
             inkscape:connector-curvature="0" />
          <path
             style="color:#000000;display:inline;overflow:visible;visibility:visible;fill:#808080;fill-opacity:1;fill-rule:nonzero;stroke:none;stroke-width:2;marker:none;enable-background:accumulate"
             d="M 54.902344 5.5820312 L 41.097656 7.6445312 L 41.097656 14.742188 A 34.033369 33.971264 43.145308 0 1 54.902344 14.769531 L 54.902344 5.5839844 L 54.902344 5.5820312 z M 26.65625 11.826172 L 16.138672 20.767578 L 21.320312 26.943359 A 34.033369 33.971264 43.145308 0 1 31.900391 18.076172 L 26.65625 11.826172 z M 69.287109 11.892578 L 64.080078 18.099609 A 34.033369 33.971264 43.145308 0 1 64.974609 18.574219 A 34.033369 33.971264 43.145308 0 1 74.648438 26.980469 L 79.919922 20.699219 L 69.287109 11.892578 z M 8.3984375 34.007812 L 6.0878906 47.619141 L 14.035156 49.021484 A 34.033369 33.971264 43.145308 0 1 16.421875 35.423828 L 8.3984375 34.007812 z M 87.515625 34.023438 L 79.529297 35.431641 A 34.033369 33.971264 43.145308 0 1 81.960938 49.019531 L 90 47.603516 L 87.515625 34.023438 z M 15.757812 58.644531 L 8.6699219 62.738281 L 8.6679688 62.738281 L 15.648438 74.648438 L 22.666016 70.597656 A 34.033369 33.971264 43.145308 0 1 15.757812 58.644531 z M 80.269531 58.660156 A 34.033369 33.971264 43.145308 0 1 77.464844 65.03125 A 34.033369 33.971264 43.145308 0 1 73.40625 70.638672 L 80.427734 74.693359 L 87.253906 62.693359 L 80.269531 58.660156 z M 30.148438 76.867188 L 27.34375 84.570312 L 40.347656 89.208984 L 43.105469 81.628906 A 34.033369 33.971264 43.145308 0 1 31.025391 77.433594 A 34.033369 33.971264 43.145308 0 1 30.148438 76.867188 z M 65.880859 76.947266 A 34.033369 33.971264 43.145308 0 1 52.902344 81.654297 L 55.683594 89.292969 L 68.625 84.486328 L 65.880859 76.947266 z "
             transform="matrix(0,-1,-1.0003957,0,438.00245,441.36222)"
             id="path4168" />
          <path
             style="color:#000000;font-style:normal;font-variant:normal;font-weight:normal;font-stretch:normal;font-size:medium;line-height:normal;font-family:sans-serif;font-variant-ligatures:none;font-variant-position:normal;font-variant-caps:normal;font-variant-numeric:normal;font-variant-alternates:normal;font-feature-settings:normal;text-indent:0;text-align:start;text-decoration:none;text-decoration-line:none;text-decoration-style:solid;text-decoration-color:#000000;letter-spacing:normal;word-spacing:normal;text-transform:none;direction:ltr;block-progression:tb;writing-mode:lr-tb;baseline-shift:baseline;text-anchor:start;white-space:normal;shape-padding:0;clip-rule:nonzero;display:inline;overflow:visible;visibility:visible;opacity:1;isolation:auto;mix-blend-mode:normal;color-interpolation:sRGB;color-interpolation-filters:linearRGB;solid-color:#000000;solid-opacity:1;fill:#808080;fill-opacity:1;fill-rule:nonzero;stroke:none;stroke-width:4.0007925;stroke-linecap:butt;stroke-linejoin:miter;stroke-miterlimit:4;stroke-dasharray:none;stroke-dashoffset:0;stroke-opacity:1;marker:none;color-rendering:auto;image-rendering:auto;shape-rendering:auto;text-rendering:auto;enable-background:accumulate"
             d="m 377.95161,372.55694 c 11.46388,-6.60993 26.18875,-2.6521 32.81902,8.81669 6.63028,11.4688 2.70094,26.18465 -8.76295,32.79458 -11.46388,6.60992 -26.19142,2.65138 -32.82169,-8.81742 -6.63028,-11.46878 -2.69827,-26.18392 8.76562,-32.79385 z m 2.00198,3.46296 c -9.58805,5.52834 -12.85033,17.73231 -7.30067,27.3319 5.54967,9.5996 17.76375,12.8801 27.3518,7.35175 9.58805,-5.52834 12.85033,-17.73231 7.30067,-27.3319 -5.54967,-9.5996 -17.76375,-12.8801 -27.3518,-7.35175 z"
             id="ellipse4539"
             inkscape:connector-curvature="0" />
        </g>
      </g>
    </g>
  </g>
</svg>

<svg xmlns="http://www.w3.org/2000/svg" width="96" height="96" viewBox="0 0 96 96.000001"><g color="#000"><path style="marker:none" overflow="visible" fill="none" d="M96 0v96H0V0z"/><path style="line-height:normal;font-variant-ligatures:none;font-variant-position:normal;font-variant-caps:normal;font-variant-numeric:normal;font-variant-alternates:normal;font-feature-settings:normal;text-indent:0;text-align:start;text-decoration-line:none;text-decoration-style:solid;text-decoration-color:#000;text-transform:none;block-progression:tb;shape-padding:0;isolation:auto;mix-blend-mode:normal;marker:none" d="M79.197 66.033c9.916-17.191 3.984-39.246-13.223-49.19-17.207-9.944-39.253-4.057-49.17 13.134C6.89 47.168 12.82 69.222 30.027 79.166c17.207 9.944 39.255 4.058 49.17-13.133zm-3.465-2.002c-8.834 15.316-28.37 20.535-43.708 11.67-15.338-8.863-20.59-28.407-11.756-43.723 8.834-15.316 28.37-20.535 43.708-11.671 15.338 8.864 20.59 28.408 11.756 43.724z" font-weight="400" font-family="sans-serif" white-space="normal" overflow="visible" fill="gray"/><path style="marker:none" d="M54.902 5.582L41.098 7.645v7.097a34.033 33.971 43.146 0 1 13.804.028V5.582zm-28.246 6.244L16.14 20.768l5.181 6.175a34.033 33.971 43.146 0 1 10.58-8.867l-5.244-6.25zm42.631.067L64.08 18.1a34.033 33.971 43.146 0 1 .895.474 34.033 33.971 43.146 0 1 9.673 8.406l5.272-6.28-10.633-8.807zM8.398 34.008l-2.31 13.611 7.947 1.402a34.033 33.971 43.146 0 1 2.387-13.597l-8.024-1.416zm79.118.015l-7.987 1.409a34.033 33.971 43.146 0 1 2.432 13.588L90 47.604l-2.484-13.58zM15.758 58.645L8.67 62.738h-.002l6.98 11.91 7.018-4.05a34.033 33.971 43.146 0 1-6.908-11.953zm64.512.015a34.033 33.971 43.146 0 1-2.805 6.371 34.033 33.971 43.146 0 1-4.059 5.608l7.022 4.054 6.826-12-6.984-4.033zM30.148 76.867l-2.804 7.703 13.004 4.639 2.757-7.58a34.033 33.971 43.146 0 1-12.08-4.195 34.033 33.971 43.146 0 1-.877-.567zm35.733.08a34.033 33.971 43.146 0 1-12.979 4.707l2.782 7.639 12.941-4.807-2.744-7.539z" overflow="visible" fill="gray"/><path style="line-height:normal;font-variant-ligatures:none;font-variant-position:normal;font-variant-caps:normal;font-variant-numeric:normal;font-variant-alternates:normal;font-feature-settings:normal;text-indent:0;text-align:start;text-decoration-line:none;text-decoration-style:solid;text-decoration-color:#000;text-transform:none;block-progression:tb;shape-padding:0;isolation:auto;mix-blend-mode:normal;marker:none" d="M68.805 60.027c6.61-11.46 2.652-26.178-8.816-32.806-11.47-6.628-26.185-2.7-32.795 8.76-6.61 11.459-2.651 26.18 8.817 32.808 11.47 6.628 26.184 2.697 32.794-8.762zm-3.463-2.001C59.814 67.61 47.61 70.87 38.01 65.324c-9.6-5.548-12.88-17.757-7.351-27.341 5.528-9.585 17.732-12.846 27.332-7.298 9.6 5.547 12.88 17.757 7.351 27.34z" font-weight="400" font-family="sans-serif" white-space="normal" overflow="visible" fill="gray"/></g></svg>
